X:1
T:Title
%%score { ( 1 2 ) | ( 3 4 ) }
L:1/8
Q:1/4=90
M:6/8
K:Bb
V:1 treble nm="Grand Piano"
V:2 treble 
V:3 bass 
V:4 bass 
V:1
 [DF][Fd][Ec] z B,F | z3 G3 | z3 .[EG]3 | z3 [DF]3 | [DF][Fd][B,DB] z B,^F | z3 G3 | %6
w: D.~D.~Ford * * * *||||||
 [CEA]2 [EG] [A,EF][EA][Ec] | [B,DB]6 | z B,B, [Fd]BF | z3 G3 | z CC [Ec][CEA][CEA] | z3 [=DF]3 | %12
w: ||||||
 [DF]3 z3 | [EG][EGc][GB] z B,B, | [CEA]2 [EG] [A,EF][Fd][Ec] | [B,DB]6 |] %16
w: ||||
V:2
 z3 .[DB]3 | GcB z B,B, | [EA][CEA][CEA] z C[CE] | [CE][FA][EG] z B,B, | z3 .[DF]3 | GcB z B,B, | %6
 x6 | x6 | [DF]3 z3 | GcB z B,B, | E3 z3 | [EG][B,E][_DB] z B,B, | z B,B, [Fd][B,DB][B,DF] | %13
 z3 [EG]3 | x6 | x6 |] %16
V:3
 B,,[F,B,][F,B,] B,,F,[F,B,D] | [E,E][G,B,E][G,B,E] E-[G,E-][G,E] | F,A,A, F,A,A, | %3
 F,,F,F, B,,F,F, | B,,[F,B,]F, B,,F,[B,D] | [E,E][K:treble][B,EG][B,EG][K:bass] E-[G,E-][G,E] | %6
 z2 B, z CA, | B,,6 | B,,F,F, B,,[F,B,D][F,B,D] | [E,E][G,B,E][G,B,E] E-[G,E-][G,E] | %10
 [F,C]A,A, F,A,A, | B,,G,[=E,G,] B,,F,F, | B,,F,F, B,,F,F, | E,B,E E,G,G, | z2 B, z G,A, | B,,6 |] %16
V:4
 x6 | z3 .E,3 | x6 | x6 | x6 | z3[K:treble][K:bass] .E,3 | F,3 F,3 | x6 | x6 | z3 .E,3 | x6 | x6 | %12
 x6 | x6 | F,3 F,,3 | x6 |] %16

